www/assets/icons/fluorescent.svg

<svg width="24" height="24" viewBox="0 0 24 24" xmlns="http://www.w3.org/2000/svg" fill='currentColor'><path d="M19.0039 9H5.00393V15H19.0039V9Z"/><path d="M13.0039 2H11.0039V5H13.0039V2Z"/><path d="M19.08 4.59648L17.2903 6.39887L18.7095 7.80807L20.4992 6.00568L19.08 4.59648Z"/><path d="M13.0039 19H11.0039V22H13.0039V19Z"/><path d="M17.2939 17.71L19.0839 19.51L20.5039 18.09L18.7039 16.3L17.2939 17.71Z"/><path d="M4.90577 4.60196L3.49865 6.00909L5.28761 7.79806L6.69474 6.39093L4.90577 4.60196Z"/><path d="M5.29848 16.2865L3.49609 18.0762L4.90529 19.4954L6.70768 17.7057L5.29848 16.2865Z"/></svg>

<svg xmlns="http://www.w3.org/2000/svg" width="24" height="24" viewBox="0 0 24 24" fill='currentColor'><path d="M19.004 9h-14v6h14zm-6-7h-2v3h2zm6.076 2.596L17.29 6.4l1.42 1.41 1.79-1.803zM13.004 19h-2v3h2zm4.29-1.29 1.79 1.8 1.42-1.42-1.8-1.79zM4.906 4.602 3.499 6.009 5.288 7.8l1.407-1.41zm.392 11.685-1.802 1.79 1.41 1.418 1.802-1.79z"/></svg>
